X: 11401
Q: "Lively, but not too fast."
M: C|
L: 1/8
K: A
E2 |\
e2dc {e}d2c<B | A2zB e2^dc |\
{B}A2G>F G2zB | eB2A G2AF |\
E2z2 z3B | e2dc fc2d |
(cB)AG F2zG | (Ace)>c (fe)dc |\
(cB)z2 z2B>B | c2B>A eE ze |\
(fd)BA AGFE | A2B>c d2c>B |\
e2z2 "^ad lib."AEcA | ecz2 z2a2 |"Tempo."\
e2dc {e}d2cB | A2z2 z2 |]


